public/assets/img/material-icons/remove_done.svg

<svg height="24" viewBox="0 0 24 24" width="24" xmlns="http://www.w3.org/2000/svg"><path d="m1.79 12 5.58 5.59-1.41 1.41-5.59-5.59zm.45-7.78 10.66 10.67-1.28 1.28-4.18-4.17-1.41 1.41 5.59 5.59 2.69-2.69 4.89 4.89 1.41-1.41-16.96-16.98zm14.9 9.27 6.48-6.49-1.42-1.41-6.48 6.48zm.82-6.49-1.41-1.41-3.65 3.66 1.41 1.41z"/></svg>

<svg xmlns="http://www.w3.org/2000/svg" width="24" height="24" viewBox="0 0 24 24"><path d="m1.79 12 5.58 5.59L5.96 19 .37 13.41 1.79 12zm.45-7.78L12.9 14.89l-1.28 1.28L7.44 12l-1.41 1.41L11.62 19l2.69-2.69 4.89 4.89 1.41-1.41L3.65 2.81 2.24 4.22zm14.9 9.27L23.62 7 22.2 5.59l-6.48 6.48 1.42 1.42zM17.96 7l-1.41-1.41-3.65 3.66 1.41 1.41L17.96 7z"/></svg>
